.github/img/logo.svg

<svg
  viewBox="0 0 64 64"
  width="128"
  height="128">
  <path fill="#1a202c" d="M0 0H64V64H0z" />
  <g fill="#fafafa">
    <path d="M29.48 42.64v4.51H8v-4.51zM47.3 16.85H39l-8.71 25.79H37l1.69-5.41h8.91l1.7 5.41H56zm-7.13 15.64L43 23.35h.2l2.87 9.14zM26.23 32.44L8 40.09v-5.71l12-4.51-.18.29v-.67l.18.28-12-4.5v-5.73l18.23 7.66z" />
  </g>
</svg>

<svg xmlns="http://www.w3.org/2000/svg" viewBox="0 0 64 64" width="32" class="w-32 h-32" height="32"><g><rect width="64" height="64" style="fill: #1a202c" fill="none"></rect><g><path d="M29.48,42.64v4.51H8V42.64Z" style="fill: #fafafa" fill="none"></path><path d="M47.3,16.85H39L30.29,42.64H37l1.69-5.41H47.6l1.7,5.41H56ZM40.17,32.49,43,23.35h.2l2.87,9.14Z" style="fill: #fafafa" fill="none"></path><path d="M26.23,32.44,8,40.09V34.38l12-4.51-.18.29v-.67l.18.28L8,25.27V19.54L26.23,27.2Z" style="fill: #fafafa" fill="none"></path></g></g></svg>
